!!!!SEGMENT: pl-kk--kk-i-356--004-001_palestrina-giovanni-pierluigi-da--veni-domine-et-noli-tardare-veni-domine-et-noli-tardare.krn
!!!cenid: 17xx:1946
!!!COM: Palestrina, Giovanni Pierluigi da
!!!COM-rismid: pe1904
!!!CDT: ~1525-1594/02/02
!!!CNT: Italian
!!!OTL: Veni Domine et noli tardare - Veni Domine et noli tardare
!!!PDT:
!!!AGN: Sacred
!!!SMS-siglum: PL-Kk
!!!SMS-shelfmark: Kk.I.356
!!!SMS-shelfwork: 004-001 M
!!!SMS-variant:
!!!SMS-altvar:
!!!NIFC-rismid: 1001141855
!!!URL-scan: http://repozytorium.nifc.pl/skany/pl-kk-nut--i-356
!!!ONB-nifc: UWAGA: tylko partia basu. Osobne części motetu: 1. Veni Domine et noli tardare, 2. Excita Domine
**kern	**text
*I"Baſso	*
*I'B	*
*clefF3	*
*k[b-]	*
*g:	*
*M2/2	*
*met(c|)	*
=1-	=1-
!LO:TX:a:t=a.6.	!
!LO:TX:b:t=Fol. 62.	!
!LO:TX:a:t=P:problem:znaki BB- B-	!
1D	Ve-
1d	.
=2-	=2-
!LO:TX:t=P:problem:kreska pseudotaktowa	!
1c	-ni
1.B-	Do-
=3-	=3-
.	.
*2\right	*
2B-\	-mi-
2.A\	.
4B-\	.
=4-	=4-
!LO:TX:t=P:problem:kreska pseudotaktowa	!
1c	-ne
2.G\	et
4A\	.
=5-	=5-
4B-\	.
4c\	.
!LO:TX:t=P:problem:kreska pseudotaktowa	!
2d\	.
1A	no-
=6-	=6-
2B-\	-li
2B-\	tar-
1G	-da-
=7-	=7-
!LO:TX:t=P:problem:kreska pseudotaktowa	!
1D	-re
00r	.
=8-	=8-
.	.
=9-	=9-
.	.
1r	.
=10-	=10-
1G	et
1B-	no-
=11-	=11-
2F\	-li
2G\	tar-
1E-X	-da-
=12-	=12-
!LO:TX:t=P:problem:kreska pseudotaktowa	!
0D	-re
!LO:LB:g=original	!
=13-	=13-
1r	.
1A	no-
=14-	=14-
1B-	-li
2G\	ta-
2G\	-rda-
=15-	=15-
1G	-re
!LO:TX:t=P:problem:kreska pseudotaktowa	!
1D	.
=16-	=16-
0r	.
=17-	=17-
1r	.
0d	ve-
=18-	=18-
.	.
1c	-ni
=19-	=19-
1.B-	Do-
2B-\	-mi-
=20-	=20-
!LO:TX:t=P:problem:kreska pseudotaktowa	!
0A	-ne
=21-	=21-
00r	.
=22-	=22-
.	.
=23-	=23-
1r	.
1G	et
=24-	=24-
1B-	no-
2F\	-li
2G\	tar-
=25-	=25-
1E-X	-da-
1D	.
=26-	=26-
!LO:TX:t=P:problem:kreska pseudotaktowa	!
1G	-re
2r	.
2G\	re-
=27-	=27-
1.d	-la-
1c\	-xa
=28-	=28-
.	.
!LO:LB:g=original	!
2B#X\	fa-
2c\	-ci
2A\	no-
=29-	=29-
!LO:TX:t=P:problem:kreska pseudotaktowa	!
1G	-ra
00r	.
=30-	=30-
.	.
=31-	=31-
.	.
0r	.
=32-	=32-
.	.
1r	.
=33-	=33-
1D	re-
1A	-la-
=34-	=34-
1.G	-xa
2F#X/	fa-
=35-	=35-
2G\	.
2B-\	-ci
2.A\	no-
!LO:TX:t=P:problem:kreska pseudotaktowa	!
4G\	-ra
=36-	=36-
2F\	.
2G\	.
2C/	ple-
2D/	-bi-
=37-	=37-
1E-X	-tu-
!LO:TX:t=P:problem:kreska pseudotaktowa	!
1D	-ae
=38-	=38-
00r	.
=39-	=39-
.	.
=40-	=40-
2r	.
2G\	re-
1d	-la-
=41-	=41-
1.c	-xa
!LO:TX:t=P:problem:kreska pseudotaktowa	!
2B#X\	fa-
!LO:LB:g=original	!
=42-	=42-
2c\	-ci-
2A\	-no-
!LO:TX:t=P:problem:kreska pseudotaktowa	!
1G	-ra
=43-	=43-
1.B-	ple-
2A\	-bi
=44-	=44-
1B-	tu-
!LO:TX:t=P:problem:kreska pseudotaktowa	!
1F	-ae
=45-	=45-
2.B-\	tu-
4A\	.
1.G	.
=46-	=46-
.	.
2F#X/	.
!LO:TX:t=P:problem:kreska pseudotaktowa	!
1G	-ae
=47-	=47-
2r	.
2D/	et
2.G\	re-
4G\	-vo-
=48-	=48-
2G\	-ca
2A\	di-
1B-X	-sper-
=49-	=49-
2A\	-sos
2A\	in
2F/	ter-
2D/	-ra(m)
=50-	=50-
1A	su-
!LO:TX:t=P:problem:kreska pseudotaktowa	!
1D	-a(m)
!LO:LB:g=original	!
=51-	=51-
00r	.
=52-	=52-
.	.
=53-	=53-
0r	.
=54-	=54-
1r	.
1D	et
=55-	=55-
2.G\	re-
4G\	-vo-
2G\	-ca
2A\	di-
=56-	=56-
1B-	-sper-
!LO:TX:t=P:problem:kreska pseudotaktowa	!
1A	-sos
=57-	=57-
2r	.
2F\	in
2G\	ter-
2B-\	-ra(m)
=58-	=58-
1A	su-
!LO:TX:t=P:problem:kreska pseudotaktowa	!
1D	-a(m)
=59-	=59-
0r	.
=60-	=60-
1D	et
2.G\	re-
4G\	-vo-
=61-	=61-
2G\	-ca
2A\	di-
!LO:TX:t=P:problem:kreska pseudotaktowa	!
1B-	-sper-
=62-	=62-
1.G	-sos
2F#X/	in
=63-	=63-
1G	ter-
!LO:TX:t=P:problem:kreska pseudotaktowa	!
1D	-ram
!LO:LB:g=original	!
=64-	=64-
1G	su-
1F	.
=65-	=65-
!LO:TX:t=P:problem:kreska pseudotaktowa	!
1BB-	-am
2r	.
2BB-/	in
=66-	=66-
2C/	ter-
2E-X/	-ra(m)
1D	su-
=67-	=67-
!LO:TX:t=P:problem:kreska pseudotaktowa	!
1G	-am
*	*ij
1C	in
=68-	=68-
1G	ter-
1G	-ram
=69-	=69-
0C	su-
=70-	=70-
!LO:TX:b:t=Pars secunda.	!
0G;	-am
*	*Xij
=-	=-
*-	*-
!!!ENC: Marta Lawrence
!!!END: 2021-02-23
!!!ENC: Andrzej Gręziak
!!!END: 2021-02-06
